/* XPM */
static const char *collectable[] = {
/* columns rows colors chars-per-pixel */
"64 64 179 2 ",
"   c #09090F",
".  c #120A0D",
"X  c #0E0D15",
"o  c #140F15",
"O  c #1B0E13",
"+  c #151016",
"@  c #1E1016",
"#  c #14131C",
"$  c #1B151C",
"%  c #221117",
"&  c #22161C",
"*  c #2D161B",
"=  c #2B191F",
"-  c #32181E",
";  c #161620",
":  c #191620",
">  c #171821",
",  c #1A1A23",
"<  c #1D1E2A",
"1  c #211D26",
"2  c #211F2A",
"3  c #321E24",
"4  c #3A1D23",
"5  c #1F212E",
"6  c #22212D",
"7  c #362026",
"8  c #252435",
"9  c #2D2734",
"0  c #262936",
"q  c #2A2937",
"w  c #272438",
"e  c #29263A",
"r  c #2C2A3D",
"t  c #332E3D",
"y  c #412127",
"u  c #4E272E",
"i  c #542A33",
"p  c #592D36",
"a  c #5B3139",
"s  c #63333C",
"d  c #2F2C40",
"f  c #312E42",
"g  c #392F43",
"h  c #2E3141",
"j  c #343145",
"k  c #3A3246",
"l  c #363449",
"z  c #39364B",
"x  c #36394C",
"c  c #3C394E",
"v  c #373450",
"b  c #3A3652",
"n  c #3E3B53",
"m  c #3F3B58",
"M  c #41364C",
"N  c #42394E",
"B  c #423D54",
"V  c #4A3E55",
"C  c #423E5A",
"Z  c #4D3F58",
"A  c #6C3641",
"S  c #6F3A43",
"D  c #743D48",
"F  c #793F4A",
"G  c #3E4154",
"H  c #3E465B",
"J  c #3F485D",
"K  c #444156",
"L  c #4A4157",
"P  c #45415C",
"I  c #48415F",
"U  c #49425E",
"Y  c #49455C",
"T  c #49455F",
"R  c #4C435B",
"E  c #42485D",
"W  c #4B485F",
"Q  c #52455D",
"!  c #53485F",
"~  c #7B4A53",
"^  c #474160",
"/  c #474260",
"(  c #474261",
")  c #474361",
"_  c #454160",
"`  c #474361",
"'  c #484260",
"]  c #484361",
"[  c #4A4361",
"{  c #484362",
"}  c #4A4362",
"|  c #4C4361",
" . c #4F4362",
".. c #4F4360",
"X. c #4A4460",
"o. c #494463",
"O. c #494462",
"+. c #4A4563",
"@. c #4B4663",
"#. c #4F4461",
"$. c #4C4663",
"%. c #4D4562",
"&. c #4A4564",
"*. c #4B4564",
"=. c #4B4664",
"-. c #4C4564",
";. c #4D4664",
":. c #4D4766",
">. c #494562",
",. c #464A60",
"<. c #4D4861",
"1. c #4D4867",
"2. c #4D4964",
"3. c #4E4968",
"4. c #4F4A69",
"5. c #4E4B69",
"6. c #514562",
"7. c #544663",
"8. c #544767",
"9. c #544761",
"0. c #524967",
"q. c #524966",
"w. c #574A65",
"e. c #554A67",
"r. c #554A63",
"t. c #594B65",
"y. c #544768",
"u. c #504A69",
"i. c #524A69",
"p. c #574A68",
"a. c #544B6A",
"s. c #564A69",
"d. c #564C6A",
"f. c #524D6B",
"g. c #594B6A",
"h. c #5A4C6A",
"j. c #5B4D6C",
"k. c #5D4F6E",
"l. c #5B4E69",
"z. c #4D5066",
"x. c #4D5169",
"c. c #5A5867",
"v. c #53516D",
"b. c #5E506E",
"n. c #5D516A",
"m. c #5B5968",
"M. c #555271",
"N. c #5F5170",
"B. c #595774",
"V. c #555A74",
"C. c #5A5B75",
"Z. c #595D78",
"A. c #60526F",
"S. c #61536D",
"D. c #615571",
"F. c #665874",
"G. c #675974",
"H. c #5C617D",
"J. c #834451",
"K. c #8D4956",
"L. c #9C5261",
"P. c #A55566",
"I. c #A65867",
"U. c #A75E6C",
"Y. c #AE5C6C",
"T. c #B86072",
"R. c #C06779",
"E. c #C56A7D",
"W. c #CA6B7F",
"Q. c #5E6380",
"!. c #606682",
"~. c #626987",
"^. c #666D8D",
"/. c #686E8E",
"(. c #666E90",
"). c #686F90",
"_. c #CD6E82",
"`. c #D17084",
"'. c #908F98",
/* pixels */
"8 e w r r r r r r d l C C _ P C C C P _ C C P P n c b b b b n c l c l l c c z P $.$.o.o.{ P P P _ P C _ P l f f f d d r r r e e ",
"w e e e r r d r r f c C C C P C C _ C C C C P P n c b b z l c z l l z l l l l P I I I $.$.$.&.o.&.o.o._ P c l j j j f d d r e e ",
"e r r r r r r r r j c C C C C _ { _ C P _ P P P n c l c b c l j j l c l l z c P P ....$.w.a.-.-.5.5.&.{ P c f j f f f d d r r e ",
"w e r r r d r d f f z n P C C P { { _ { o._ P P c c l l c c l l z l c l j l c P ......9.w.d.i.-.5.&.{ { P l d f d f f d d r r r ",
"w r r r d d r f f f z B { I P P C P P { { o.1.P c c l j l l l c c l l l l z c Y q.7.7.a.l.a.a.i.5.&.&._ P l f j f d f f d r r r ",
"w r r r r r f f r j c P { { _ { P { C C o.&.o.P n c l j l c l c c l l z c z c Y w.7.a.g.l.a.a.i.5.5.1.{ P z j j f f f d r d r r ",
"e r r f r d d j j j c P { { I { -.-.{ { o.&._ P n c j f l c l l z z z c c c n Y 9.a.j.k.S.k.g.q.i.q.q.-.Y c f j l j f r d f f r ",
"e r r d f j f j l l n P &.-.-.{ -.i.a.-.{ 1.{ P c l l j l c l l z c l l c c c L $.a.b.F.b.D.g.9.w.w.9.q.<.c f j l d d j j f d f ",
"e r d d f j j f j z n B P { { { -.-.-.o.{ -.o.C c c l l c j l c z z z z c c c K w.j.D.G.w.g.t.t.t.t.w.w.<.c j j f f f d f j f f ",
"r r r d f j j j j j n B C { { { { { _ &.o.o.o.o.n z l l c z c z z n c c c c c K w.j.w.n.t.n.l.w.r.r.n.l.Y n l j d j j r d f j f ",
"e r d f j f d j l f c C P P P { &.-._ &.o.o.{ P n c c c c c c z c c c c n c n Y l.l.w.w.t.b.l.w.w.Q 9.r.9.n j l l f f d f f f f ",
"d j j z l l j l n n n P P n n P Y P P B B B B n n n c n B B B n c c n n B B P <.q.q.w.w.w.w.n.d.w.9.$.<.<.K l j j j l j j f f f ",
"l c B B n n C P _ P B B c z c z z c c c c c c c n P P P o.:.o.o.o.o.1.P P @.<.5.f.f.f.v.v.f.f.f.f.f.f.5.@.R R R L R R L V V N k ",
"b b m m m C _ 1.&.{ C B z l z l l c c z c c z z n P o.o.o.f.o._ -.1.&.{ &.o.1.v.f.f.f.f.f.f.5.5.v.v.f.f.f.R Q r.r.r.Q R R Q V N ",
"m m m C P _ o.1.5.5.C c c l l z z z c c c z c z c P o.o._ &.o.P o.o.&.o.&.o.1.v.f.5.5.5.M.M.f.v.v.v.v.f.v.<.Q Q r.r.Q R Q Q V V ",
"m C m m P P _ &.:.&.P c z z l z z l c n c j z z z C o.P o.o.&.o._ _ &._ o.{ 1.v.f.f.f.f.M.M.M.M.M.v.f.f.f.9.9.9.Q 9.9.Q Q Q R V ",
"m m C C C _ { { { _ P z z z l z z z c c c l c c c B o.o.P _ o.P P { &.&.&.{ <.v.f.j.f.f.M.f.v.M.M.f.5.5.1.9.r.r.! r.r.Q Q Q L V ",
"m m m C P _ { o.&.5.P z z z l l j z c l l c l j c P _ o._ o.o.P P o.&.-.5.1.f.B.B.f.v.M.M.f.f.M.M.f.5.5.f.9.r.Q ! w.Q Q w.Q V V ",
"b m C C o.o._ o.&.o.P c c c c c l z z z l l z c n P P o.{ P P P P P P Y <.1.v.B.M.M.M.M.M.B.M.M.M.M.v.5.5.w.r.r.9.Q Q w.l.! Z Z ",
"b n C P P o._ _ o.o.B z z n n c z z z z z z c z n P o.P P P P B c c c c n P W Y z j r r j Y 5.f.M.v.M.f.5.w.w.w.! R R Q w.r.Q V ",
"b B P C C P { _ 1.:.n z z c z j c l c c l z z z n P P C P B K n z l j f l q , # > 5 6 5 < # , r P f.M.M.v.w.w.r.r.Q Z Q Q ! Q V ",
"c n C m m C P _ 1.:.n z z c z l c c c l z z z c B P B n B K c c c t , & + X q n H J J J H G h , # l 5.M.v.9.! 9.9.Q Z Q Q Q Q Z ",
"c n n b C C P _ 1.1.K z z l j z l z z z z z z z c B B B B c z z c 6 * U.D O 8 G ,.J H J J J E K e X j 4.5.9.r.r.Q R Q ! Q Q R V ",
"l n b n B P _ o.o.o.P z j z l z j j c c c z l l c n c B B c z z z r . s _.P.- : x E E H J H J J E r X n 5.$.Q Q Q Q Q Q R Q Q V ",
"c n n C P { o.o.o.o.B c z z j l z z z c B c z z c c c c c n c l c r   o 4 Y.E.i o r P E J J J H H H ; 6 f.9.Q R Q 9.9.R R Q R R ",
"c n B Y Y P K P P C K c c z z z z c B c N B c z c B n c c B B B B 2 # x 5 @ J.`.J.% 6 G E J J H H J q # Y <.R V L R Q R L L V V ",
"f j j z c z z z c c B L L L R L L R R R R R R L B B B K P K K K c # # n H r o p E.Y.4 # x E E J J E r X L R c z c c c z z z j j ",
"r d r j j j j j j z c R Q R Q 9.Q ! ! 9.w.w.w.r.K K B B P P P c , > , # l K x ; - I.W.a o e H J J E 8 # ! V c z l z l j l l j f ",
"r r r j l j j j l z N R 9.Q ! 9.9.w.r.Q r.9.t.r.B K B B B K z # 6 C.H.r X 0 K G 6 O F _.K.% < n E G # 9 t.K c c c l z l j f f f ",
"r r r f f f f j l f c Q R ! w.9.w.w.l.! ! r.t.Q V B B B K k # 0 H.(.~.H.G # , n K h + u T.T.y # j 6 # V Q K c c c j z j d f f d ",
"r r r d d f f j j j z L ! ! ! w.w.w.w.9.w.w.Q Q V c B B j # j !.^.^.n G ^.v.< # h E x , * L._.A O o M r.! B z z c l j j d f d f ",
"r d r r d f f j f f z Q w.w.n.w.w.l.w.w.r.w.w.Q V n B r # x ~./.^.^.Q.Q.x.,.Z.h X w G G 6 . S E.s $ r.t.t.K z c n c l j f j j d ",
"r f f f f f d f d j c R Q t.S.r.w.l.w.w.9.w.l.Q V B q # G ^.H.,.x.~.^.^.E # r Z.c   # , # # & 7 = t S.S.l.K c c z l j j j j f f ",
"e j l z j r d d d j z L Q 9.9.Q w.l.l.9.w.! Q Q V 6 # T ~.,., 3 = r ~.(.^.x., , 6 6 N V V w.w.V V t.S.S.t.V z j l j f j l j f f ",
"e f j l j r d r d d c Q ! Q R 9.9.r.r.Q ! ! ! Q 6 > z.!.x X . ~ a # H.(.^.Z.8 X t n.S.S.n.l.n.l.l.S.l.l.r.B l j l j j l j l j f ",
"r d r d f f d r r d c R Q Q Q w.9.w.w.Q Q 9.Q 1 , V.H.8 # r 6 . # K ^.!.G ; , V t.t.l.S.S.n.l.l.t.l.l.l.r.c j j j z z j j z l f ",
"w r r r f j f f j d N R Q 9.9.9.9.w.l.r.t.V 1 6 Z./.P X t j # 5 v.~.x.6 # r c R n.l.l.n.S.S.n.l.t.l.t.w.Q B j j c c l j j j j f ",
"e r r d f j j d j f z R Q Q Q ! Q 9.w.l.V $ e H./.^.V.< # # j Q.Z.h # 6 z c B 9.t.l.l.n.n.l.t.l.w.t.w.w.Q c f j z l f j j j f j ",
"r d d f j j j j l f c Y R Q R R Q 9.9.N # h !.^.^.^.^.Q.v.C.Q.G , 1 j c n B B 9.r.r.r.r.r.r.! r.! ! 9.Q R B l z l l l l z l l z ",
"f j j j z l l l z c B W <.<.<.<.f.v.k # x ~.^.^.^.^.^.(.^.z.6 , k R R R Q Q R L B K K B c K c c B c c c c P P P o.P P K P P K K ",
"f j z j j j l l z c B 1.1.f.f.f.v.l # G ~.^.^.^.^.^./.Z.r ; r 1.d.f.l.d.w.t.9.n z c c c c z j j f l j j l B P P o.1.1.o.Y <.Y P ",
"f j j j j j j z l c K f.5.i.1.1.r # ,.^.^.^.^.^.(.!.G , 6 P M.v.n.b.b.a.l.n.9.n z z z c n l j l j l j j j B { o.o.o.o.o.o.<.Y P ",
"f j j f j j f j j c B 1.1.1.&.r ; z.^.(.^.^.^.^.x.8 , c i.j.v.v.b.l.l.w.t.l.9.c z z z c z z z l j j j j j B o.o.1._ _ o.o.o.o.P ",
"f j j f f f f f j z c o.5.-.P X G ^.^.^.^.^.Z.j # r R w.d.l.d.n.b.l.l.l.w.t.r.c l c c l j l l l j j j f j B 1.-.&.o.P P P _ _ o.",
"f f d f d d f f j z c <.5.1.P # z ^.(.^.~.K , < c w.w.9.w.w.w.t.t.n.S.b.S.l.w.B j z c z l j j l l l j j z n o.o.-.1.o.P C P P P ",
"f f f j f r f j j l K 5.5.&.:.j # j ,.K 8 , z o.W w.w.9.r.t.g.t.n.S.b.S.b.l.w.B z z z z l j l l j j j j l B o.1.1.o.o.P P m C B ",
"d f j f f r r j j z n @.&.o.:.5.n w < 2 d o.f.1.Y 9.w.w.w.l.t.r.t.n.w.w.l.l.r.c l l j f l l j j j l j f j B 1.1.1.o.P P C C B B ",
"e r d d f f r f j l c o.P o.1.1.1.:._ &.5.&.&.1.P 9.w.w.g.l.w.w.t.w.r.t.t.t.r.c j l j l z c j f f j f f j n o._ P P C C C P C B ",
"e r r r j f f f f j c P P &.o.&._ { _ &.5.&._ _ Y w.w.7.9.l.l.l.w.w.r.t.w.w.! c f f j l j z j f f f f f j n P _ C C C C C C B B ",
"e e r r f r j f f j n @.&.&.o.&.&._ _ _ { _ { { Y 9.w.w.9.t.t.t.r.l.t.9.9.r.Q c j j j j j l j d d j f f z B P &.P C B P B C m C ",
"e e e r r r j j j j c o.o.o.{ P &.{ { { P P { { P 9.w.w.r.t.w.r.t.w.Q Q 9.9.Q z j j j j j j j f f j f j z n Y P P C B B B P C C ",
"e e r r r r d r f j c P P o.{ C { { :.&.P _ { P P 9.9.r.w.r.9.r.w.r.9.Q ! Q R B l j j l l l j j f j j l j c P P P P P n C P C B ",
"r f j j j f j j j l c B P B C n n n n n B n m n P Y R r.9.R 9.r.9.9.9.R R R R B n n c n c c n z c B c c c c n B n B B n n n c c ",
"k c N V B N B V B c c z j f j j j j j j l l l z n Y o.Y <.o.Y o.o.o.o.Y Y Y Y Y P P Y o.P C Y Y P P P P P c l j j j f j j f d r ",
"M N B N B V V V V V l d r d d f j f f f f d j j c o.&.{ &.&._ { o.o.o.P o.{ P Y o.o.o.1.&.o.o.1.o.o.o.P B z j f d r e r r f r r ",
"M N B B V V B V R V j r r d f f f f j j j f f j c P &.o.o.o.{ _ P P P C P P P P o.$.o.1.o.&.1.o.o.o.o.P P l j j d d r r r r r r ",
"M N N V B V V V R B f f d d f f f f d l l f j j c P &.P o.o._ _ _ P C C P P P Y 1.o.{ o._ o.P P P P P C P j d d d r r r r r r r ",
"k M B B N V V B V N f r r r r r f d r f j j j j c P _ P o.{ P C P P C C C m P P o.o.{ { _ P C C C P m m n j r r f d e r r r r r ",
"g M M B B B V M M N j r r e r r r r r r r r d d l C P { o.C C P C C C C m m P P P o.P P P P P C P C C C m l d r r e e e r e e r ",
"k k M M V V M M B M f e e e r r e e r r r e r d l C P P P C C P P C C b b m B P P o.P C C C P P P C C C n j f f f e e j c.j r e ",
"k k k M N M M M V N d e r e e r w r e e w e e r l P P C C P C B P B m b v m C Y P C m m P C C P P B C C n j f j f r r c.'.c.e e ",
"g k k M k k B M M k r e e e e e 8 r r e w e e r z P B m C C m n C m n b b b n P B m b n P P C m B B C B n j d d f r e j m.j 8 e ",
"g k k k M k M k k z f w e e w e w w e e e r e r l B m m C C C C m m b b b b B P m m C m C P C m B C C n b j r r r r e e e w 8 8 ",
"g g k k k k k k k k r w e e e e 8 w e e e w e r j B b C C C C C m m b b b b n B n m m b C C m m m b b b c j r e r r 8 8 8 8 8 8 "
};
