/* XPM */
static const char *exit[] = {
/* columns rows colors chars-per-pixel */
"64 64 193 2 ",
"   c #1A131F",
".  c #1A1226",
"X  c #1C1525",
"o  c #201A24",
"O  c #241935",
"+  c #2B1E34",
"@  c #24163C",
"#  c #261A3D",
"$  c #2A1D3E",
"%  c #221535",
"&  c #262627",
"*  c #262529",
"=  c #28262D",
"-  c #29292D",
";  c #252236",
":  c #2B2432",
">  c #2C2A33",
",  c #272338",
"<  c #2A253B",
"1  c #2D2A3C",
"2  c #302F34",
"3  c #33253F",
"4  c #332D3C",
"5  c #302234",
"6  c #313035",
"7  c #3A3236",
"8  c #36343C",
"9  c #3A323C",
"0  c #423C3B",
"q  c #261740",
"w  c #271840",
"e  c #2A1B43",
"r  c #2E1D4A",
"t  c #311F4D",
"y  c #311F50",
"u  c #2D2343",
"i  c #2F2B40",
"p  c #2F2148",
"a  c #302344",
"s  c #322C43",
"d  c #3B2A43",
"f  c #32234B",
"g  c #342B4A",
"h  c #3C2D4C",
"j  c #392642",
"k  c #343244",
"l  c #3C3345",
"z  c #3D3B43",
"x  c #36334A",
"c  c #3C344B",
"v  c #3C394B",
"b  c #352353",
"n  c #382655",
"m  c #3B2B56",
"M  c #372458",
"N  c #3A265C",
"B  c #3D2C59",
"V  c #372E50",
"C  c #3B3552",
"Z  c #3E3A55",
"A  c #3F325A",
"S  c #3C2760",
"D  c #3E2A61",
"F  c #432E4C",
"G  c #403747",
"H  c #403F45",
"J  c #42364D",
"K  c #43394D",
"L  c #4B3C4D",
"P  c #412E58",
"I  c #413653",
"U  c #433C54",
"Y  c #493D54",
"T  c #43345C",
"R  c #49325A",
"E  c #423C5A",
"W  c #4A3D5E",
"Q  c #412E64",
"!  c #442F68",
"~  c #463563",
"^  c #483764",
"/  c #463C61",
"(  c #4A3A64",
")  c #46316B",
"_  c #49346D",
"`  c #4E3E69",
"'  c #513F6D",
"]  c #503760",
"[  c #4A3570",
"{  c #4E3876",
"}  c #533D76",
"|  c #553F7A",
" . c #47444F",
".. c #4A454D",
"X. c #4E4D4E",
"o. c #404045",
"O. c #52454B",
"+. c #564B4C",
"@. c #5A4C4E",
"#. c #5B534D",
"$. c #464350",
"%. c #4F4E50",
"&. c #45415C",
"*. c #4B435D",
"=. c #4B4057",
"-. c #504050",
";. c #534D53",
":. c #51455E",
">. c #534C5E",
",. c #594E59",
"<. c #54515B",
"1. c #5B5558",
"2. c #60564D",
"3. c #61594E",
"4. c #615856",
"5. c #7F7B55",
"6. c #474361",
"7. c #4A4461",
"8. c #4F406A",
"9. c #4D4865",
"0. c #524661",
"q. c #554B64",
"w. c #51426B",
"e. c #56496A",
"r. c #575262",
"t. c #5F5664",
"y. c #5B5867",
"u. c #59536A",
"i. c #5D5969",
"p. c #564276",
"a. c #5B4C73",
"s. c #57417B",
"d. c #5E5374",
"f. c #5F5279",
"g. c #644E6A",
"h. c #61476A",
"j. c #635A66",
"k. c #645F6C",
"l. c #605763",
"z. c #695070",
"x. c #635A76",
"c. c #62547A",
"v. c #665A7B",
"b. c #695C7B",
"n. c #605574",
"m. c #696565",
"M. c #6D6868",
"N. c #716B6B",
"B. c #6B6675",
"V. c #736D7F",
"C. c #75727F",
"Z. c #827E56",
"A. c #898559",
"S. c #8D895A",
"D. c #594281",
"F. c #695C81",
"G. c #675B81",
"H. c #6E6285",
"J. c #716585",
"K. c #736985",
"L. c #726589",
"P. c #766A8D",
"I. c #786D8E",
"U. c #767380",
"Y. c #757281",
"T. c #7B738C",
"R. c #7A6E91",
"E. c #7A6E91",
"W. c #7D7294",
"Q. c #7D7293",
"!. c #807597",
"~. c #817696",
"^. c #847B97",
"/. c #817698",
"(. c #847A9A",
"). c #8A819E",
"_. c #908E98",
"`. c #8D84A2",
"'. c #8F88A2",
"]. c #9187A5",
"[. c #938AA6",
"{. c #948AA8",
"}. c #988FAD",
"|. c #9A91AD",
" X c #9E95B1",
".X c #A097B3",
"XX c #A59FB6",
"oX c #A299B4",
"OX c #A69DB9",
"+X c #A89FBA",
"@X c #A9A0BB",
"#X c #AFA7C2",
"$X c #B4ADC5",
/* pixels */
"; 1 a a g a a a a g h A E E T T T T E E E E E E Z C A C C A Z c v C C C C C C E / / W W W E E E E E T E E C g g g g g g g g a 1 ",
", a B B B B B B B B B B B B B B B B B B B B B B B B B A Z U U  . .$.U U I A B B B B B B B B B B B B B B B B B B B B B B B B B a ",
", a B B B B B B B B B B B B B B B B B B B B B I I U $.$. . .$. . . . . . .$.$.U I A B B B B B B B B B B B B B B B B B B B B B a ",
", a B B B B B B B B B B B B B B B B m V x c v H H H H H H z z H H H H H H H H H H z v c x V m B B B B B B B B B B B B B B B B g ",
", a B B B B B m m m m m m m V g a 1 > - - - - - - - - - - - - - - - - - - - - - - - - - - - > 1 s g V m m m m m m m B B B B B g ",
", s T T B B B a.c.c.c.c.d.u.r.<.<.<.<.<.<.<.<.<.<.<.<.<.<.<.<.<.<.<.<.<.<.<.<.<.<.<.<.<.<.<.<.<.<.<.r.u.d.c.c.c.c.a.B B B T T a ",
"< k g.g.C T ^ J.T.Y.Y.Y.C.C.C.C.C.C.Y.C.C.Y.Y.C.C.C.C.C.Y.Y.Y.C.Y.C.C.C.Y.Y.C.C.Y.Y.Y.Y.C.Y.C.C.C.C.C.C.C.Y.Y.Y.T.H.~ T I z.h.k ",
"< 1 > - > n.L.oXT.J.I.oX[.J.J.).XXW.J.K.|.|.K.J.~.XX^.J.J.[.oXI.J.T.XX'.J.J.`.XXQ.J.P. X[.J.J.^.XX/.J.K.|. XP.J.~.oXH.d.> - > 1 ",
"< > * - * x.R.}.L.m J.H.W.w.~ !.F.R.B c.P.R.a.B Q.F.Q.T e.W.L.H.B P.F.!.( ( !.H.P.B G.L.W.e.T W.G.R.B a.I.P.v.B R.{.P.x.* - * 1 ",
"< > - * = x.R.P.P.L.Q.T w.!.I.c.m L.P./.^ ( Q.b.H.m G.I.!.w.T I.v.P.B a.W.R.a.B P.v.T.T w./.I.F.m J.P.!.^ ~ !.P.L.P.P.x.* & - 1 ",
"< 1 - & = x.R.].(.$XT.>.P.|.oXQ.R./.@X].R.R.B.1.I.R.W.XX}.R.R.K.<.K.R.R. XoXR.R.K.<.V.R.R.}.OXW.R.!.+X{.P.>.T.#X!.].P.x.* * - 1 ",
"i 1 * - * x.R.Q.J.].V.X.k.e.` w.w.8.` ` w.w.>.;.e.w.8.` ` w.w.q.;.e.w.w.` ` w.w.q.%.q.8.w.` ` w.w.w.` e.k.X.B.'.H.W.P.x.* - * 1 ",
"x k 9 4 4 v.I.|.P.( Q.i.m.j.T B B B B B B B t.m.T B B B B m m *.m.*.m B B B B m *.M.:.m B B B B B B T j.m.k.I.( Q.|.P.x.4 4 9 z ",
"C C O.#.L b.R.oXL.T Q.( l.j.T B B B B B B B j.M.W B B B B B B 0.N.0.B B B B B B 0.N.0.B B B B B B B T t.j.e.R.~ I..XP.v.L 2.O.K ",
"Z I 2.A.O.b.R.P.G.!.`.^ T T B B B B B B B A W W T B B B B B B T W T B B B B B B T W T B B B B B B B B T T ` `.!.v.R.P.v.@.S.3.K ",
"E U 2.A.O.b.R.L.m R.OX^ B B B B B B B B B B B B B B B B B B B B B B B B B B B B B B B B B B B B B B B B B ( @XH.m P.P.v.@.S.3.Y ",
"Z I #.5.O.b.R.W.P.P.(.^ B B B B B B B B B B B B B B B B B B B B B B B B B B B B B B B B B B B B B B B B B ` (.R.P.W.P.v.+.Z.#.Y ",
"Z c L ..L b.I.+XF.B Q.( B B B B B B B B B B B B B B B B B B B B B B B B B B B B B B B B B B B B B B B B B 8.R.B J.OXP.v.L O.L Y ",
"C k - - : x.R.].W.a.Q.( B B B B B B B B B B B B B B B B B B B B B B B B B B B B B B B B B B B B B B B B B 8.R.a./.].P.x.- - - G ",
"C k * * * x.R.L.( /. X^ B B B B B B B B B B B B B B B B B B B B B B B B B B B B B B B B B B B B B B B B B `  XR.( P.I.x.* * * l ",
"C k * * * x.R.L.^ !. X^ B B B B B B B B B B B B B B B B B B B B B B B B B B B B B B B B B B B B B B B B B ` .XR.~ P.I.x.* * * l ",
"C k * * * x.R.`.!.a.Q.^ B B B B B B B B B B B B B B B B B B B B B B B B B B B B B B B B B B B B B B B B B 8.R.c.!.`.P.x.* * * l ",
"c k * & * x.R.@XG.B Q.( B B B B B B B B B B B B B B B B B B B B B B B B B B B B B B B B B B B B B B B B B 8.I.m J.OXP.x.* * * l ",
"x k * * * x.R.W.I.L.(.( B B B B B B B B B B B B B B B B B B B B B B B B B B B B B B B B B B B B B B B B B ` (.P.P.!.P.x.* * * l ",
"c k * * * x.R.L.B R.OX^ B B B B B B B B B B B B B B B B B B B B B B B B B B B B B B B B B B B B B B B B B ` @XH.m P.I.x.* & * v ",
"c k * * * x.R.P.v.!.`.^ B B B B B B B B B B B B B B B B B B B B B B B B B B B B B B B B B B B B B B B B B ` './.c.I.P.x.* * * l ",
"k 1 * * * x.R..XP.~ Q.( B B B B B B B B B B B B B B B B B B B B B B B B B B B B B B B B B B B B B B B B B 8.I.^ R. XP.x.* * * 4 ",
"1 1 * * * x.R. XP.^ Q.( B B B B B B B B B B B B B B B B B B B B B B B B B B B B B B B B B B B B B B B B B 8.I.( Q. XP.x.* * * 1 ",
"1 1 * * * x.R.P.c./.].( B B B B B B B B B B B B B B B B B B B B B B B B B B B B B B B B B B B B B B B B B ` ].!.a.P.P.x.* & * 1 ",
"1 > * * * x.R.L.B Q.XX^ B B B B B B B B B B B B B B B B B B B B B B B B B B B B B B B B B B B B B B B B B ` +XL.B P.P.x.* * * 1 ",
"< > * * * x.R.!.R.H.!.( B B B B B B B B B B B B B B B B B B B B B B B B B B B B B B B B B B B B B B B B B ` !.L.R./.I.x.* & * 1 ",
"1 1 * * * x.R.@Xv.B Q.( B B B B B B B B B B B B B B B B B B B B B B B B B B B B B B B B B B B B B B B B m 8.I.m H.@XP.x.* & * 1 ",
"1 1 - * * x.R.`.W.c.W.( B B B B B B B B B B B B B B B B B B B B B B B B B B B B B B B B B B B B B B B B B 8.Q.v.!.).P.x.* * - 1 ",
"< 1 > 8 > x.R.L.~ !. X^ B B B B B B B B B B B B B B B B B B B B B B B B B B B B B B B B B B B B B B B B B ` oXI.T P.P.x.- 8 > 1 ",
"< > 2 z > x.R.L.w.(.|.^ B B B B B B B B B B B B B B B B B B B B B B B B B B B B B B B B B B B B B B B B B ` |.Q.( P.P.x.> z 2 1 ",
"< 1 - - = x.R.{.Q.e.Q.( B B B B B B B B B B B B B B B B B B B B B B B B B B B B B B B B B B B B B B B B B 8.I.a.!.{.P.x.= - - 1 ",
", > 6 > > x.R.OXb.B Q.( B B B B B B B B B B B B B B B B B B B B B B B B B B B B B B B B B B B B B B B B B 8.R.B L.OXP.x.> > 6 1 ",
"< > - - - x.R.R.L.I.(.( B B B B B B B B B B B B B B B B B B B B B B B B B B B B B B B B B B B B B B B B B ` (.W.H.Q.P.x.= * - 4 ",
"1 1 * - * x.R.L.m I.OX^ B B B B B B B B B B B B B B B B B B B B B B B B B B B B B B B B B B B B B B B B B ` @XH.m P.P.x.* - * k ",
"k 1 - * = x.R.I.F.W.).^ B B B B B B B B B B B B B B B B B B B B B B B B B B B B B B B B B B B B B B B B B ` `./.v.R.P.x.* & - v ",
"s 4 - * = x.R.oXH.T R.( B B B B B B B B B B B B B B B B B B B B B B B B B B B B B B B B B B B B B B B B B 8.I.T P..XP.x.* * - v ",
"s 4 * - * v.x.<.k 4 $.x B B B B B B B B B B B B B B B B B B B B B B B B B B B B B B B B B B B B B B B B B C $.1 l <.x.x.* - * l ",
"s 4 > - > =.8 * * * * s B B B B B B B B B B B B B B B B B B B B B B B B B B B B B B B B B B B B B B B B P s * * * * 8 Y > > > v ",
"s C ` ` ` ` ` ( ( w.' ` } D.D.D.| p.p.| D.D.| s.} s.D.D.s.p.p.D.D.D.p.p.s.D.D.s.| | | D.D.| p.p.| D.D.D.} ` ' ' ( ( ` ` ` ` ` 7.",
"s < 3 d l 3 a + F F R f O ~ { { b +...n { { f h.h Q { ) ;.4.;.) { ) 4.#.,.[ { B F ] f { { b #.#.M { { ) O F J F F < 3 j l d 3 l ",
"s ; X 0 H 7   d + e n M < B [ _ f f T Q [ _ Q ~ Q ) _ N B ~ ~ _ [ _ ( ~ ^ _ ) Q Q N N _ _ Q ~ ~ ) [ ) b 3 5 $ u + d . 9 H 0 o 1 ",
"s ; 7 C Q G 7 h f N N e a Q ) N r f _ D ) D N D S ) ) D _ ) Q _ [ ! ! [ [ _ N N ! D Q ! ) Q Q _ S ) ) b j $ ! _ p d m B ~ s > i ",
"< u V N D G 7 R N N M e a Q ) N b b ! N _ N N D N N N N ) ! N _ _ N N ) Q Q N N _ ! N b b D D N b ! Q e O e D Q f d B N ) # . s ",
"< u M n u z > T N N b f j m _ N N r D Q [ Q D D N N b r t N D _ [ D Q Q b Q N D _ ) b q @ r N q e D _ r e + e b + d f f e @ . 1 ",
"< , b f 1 1 k k f b e $ O h / / E r M ! Q b N N b r e @ @ r D ! [ S Q f # m Y c x A f @ @ r m @ e N Q N # d h n h : h g i u O g ",
"< a M f 1 1 k k 1 @ @ e p 7.6.&.7.f y D y @ r b q @ @ e a f D N N b ) M c :.:.v k k f @ @ f Q q b r @ e # m _ n f B Z Z E E g x ",
"< u e p i s s 1 < @ @ r h 7.6.E 6.C # e e q b r @ @ h *.0.*.T e @ e ) ~ :.:.*.K x k s # q b M q b e @ @ @ N D # # m E Z E &.E Z ",
"1 1 q f k s k k f q q b V E E Z Z a @ @ @ e M e # p =.q.0.7.*.u @ @ N ^ *.*.*.$.Z Z c u e b r @ b r @ u g x g @ @ p E Z Z C c x ",
"l h q b c K K I b e @ t p i k k k $ @ @ @ r b u l &.7.*.7.7.&.E x e r A *.*.*.*.&.&.&.p @ q @ q M b p &.&.v k $ @ < s k k s 1 < ",
"G h q t B Y Y m b t @ @ # 1 i s s p @ @ @ r e u v 7.7.7.7.7.6.7.7.g r p E 6.&.&.7.7.E # @ @ @ e b r Z 6.E l k < @ # < 1 1 s i < ",
"G h e g I Y U m n b # @ @ < i s a b @ @ q r @ i v &.7.7.7.7.7.&.&.x @ @ g &.&.&.7.7.h @ @ @ @ e e @ Z &.E x k u @ # 1 1 1 s B u ",
"G J J Y Y Y Y Y U b q @ $ 1 s s i u # @ q e # s l Z 7.&.7.7.7.Z W Z # @ p E &.*.9.E $ @ @ @ @ @ @ # C E &.k i 1 # @ # 1 1 p b < ",
"c J Y U K Y =.Y Y c # $ 1 1 1 1 s i 1 $ @ @ # s c x W &.7.7.E g E E e e V Z &.&.7.Z h e @ @ @ @ @ g Z Z Z k i 1 < $ $ < < $ # < ",
"d c J Y Y Y Y J J K 1 < 1 < 1 1 1 1 i < # @ # 1 k u g 7.7.E g e E E p g Z Z &.&.&.*.&.a @ @ @ e @ u C E Z x < < 1 < < < 1 < , < ",
"l G G G Y Y J G Y J s < < < 1 1 < < i 1 # @ < 1 k u e E &.Z e # Z E C h C Z E &.&.7.&.C g # @ r q a Z E Z k 1 1 s < < k y.k 1 < ",
"l l l G K J J J U K s < 1 < < 1 , < < < # @ , 1 x g h E E E a < Z E Z C C Z E *.&.E Z Z &.u @ @ e Z E E Z k k k s 1 1 y._.y.< < ",
"d l l K c c K J K c 1 < < < < < ; < < < # @ $ 1 l E E U E E Z C Z Z Z C C C Z &.E Z C Z &.C @ @ e Z E E Z k i s s 1 < k y.k ; < ",
"d l l c c c J l l l s , < < , < , , , < $ @ # 1 x E Z Z E E E E Z Z C C C C E &.Z Z E Z &.E u # u Z E Z C k 1 < 1 < < < < , ; ; ",
"d d l c c c c l l c 1 , < < < < ; , < < < ; < 1 k Z C E E E E E Z Z C C C C C U Z Z Z Z E E C C C C C C c k 1 < < < ; ; ; , ; ; "
};
