/* XPM */
static const char *floor[] = {
/* columns rows colors chars-per-pixel */
"64 64 158 2 ",
"   c #262336",
".  c #272438",
"X  c #29263A",
"o  c #2C2A3E",
"O  c #2F2C40",
"+  c #312E42",
"@  c #392F44",
"#  c #343146",
"$  c #3A3246",
"%  c #363449",
"&  c #39364B",
"*  c #3C394E",
"=  c #3A3651",
"-  c #3E3B53",
";  c #3F3B58",
":  c #41364C",
">  c #43394F",
",  c #423D54",
"<  c #4A3E55",
"1  c #423E5A",
"2  c #444056",
"3  c #494157",
"4  c #45415C",
"5  c #48435B",
"6  c #49445B",
"7  c #48405D",
"8  c #48415D",
"9  c #48415F",
"0  c #4A415E",
"q  c #48425E",
"w  c #4B425E",
"e  c #49455C",
"r  c #49455E",
"t  c #4C445B",
"y  c #4C485F",
"u  c #52455E",
"i  c #52485F",
"p  c #474160",
"a  c #464260",
"s  c #474260",
"d  c #474360",
"f  c #474261",
"g  c #474361",
"h  c #474361",
"j  c #484260",
"k  c #494260",
"l  c #484360",
"z  c #494360",
"x  c #484261",
"c  c #484361",
"v  c #4A4361",
"b  c #484362",
"n  c #4A4362",
"m  c #4B4362",
"M  c #4C4361",
"N  c #4D4260",
"B  c #4F4360",
"V  c #4F4362",
"C  c #484461",
"Z  c #4A4460",
"A  c #484462",
"S  c #494462",
"D  c #484463",
"F  c #494463",
"G  c #4A4563",
"H  c #4A4663",
"J  c #4B4663",
"K  c #4C4561",
"L  c #4F4461",
"P  c #4D4562",
"I  c #4D4563",
"U  c #4F4462",
"Y  c #4D4662",
"T  c #4D4663",
"R  c #4C4763",
"E  c #4A4564",
"W  c #4B4564",
"Q  c #4A4664",
"!  c #4B4664",
"~  c #4A4665",
"^  c #4B4765",
"/  c #4D4464",
"(  c #4C4564",
")  c #4D4664",
"_  c #4D4765",
"`  c #4C4766",
"'  c #494562",
"]  c #4C4861",
"[  c #4D4966",
"{  c #4D4867",
"}  c #4D4967",
"|  c #4E4866",
" . c #4E4967",
".. c #4D4964",
"X. c #4F4B69",
"o. c #4E4C6A",
"O. c #534562",
"+. c #544663",
"@. c #504764",
"#. c #544767",
"$. c #544760",
"%. c #584761",
"&. c #514966",
"*. c #534867",
"=. c #524967",
"-. c #524867",
";. c #534A67",
":. c #574A64",
">. c #574B65",
",. c #544A66",
"<. c #554A63",
"1. c #5A4C65",
"2. c #504B69",
"3. c #514B69",
"4. c #524A68",
"5. c #524B69",
"6. c #504B6A",
"7. c #554868",
"8. c #544B69",
"9. c #564A68",
"0. c #574A68",
"q. c #564B68",
"w. c #564A69",
"e. c #574A69",
"r. c #534C6A",
"t. c #574D69",
"y. c #554C6A",
"u. c #544C6B",
"i. c #574C6B",
"p. c #514E6B",
"a. c #584A69",
"s. c #584B6B",
"d. c #594B6B",
"f. c #594C6A",
"g. c #5B4D6B",
"h. c #5A4C6C",
"j. c #5D4F6E",
"k. c #5D4F6F",
"l. c #5C4E69",
"z. c #575067",
"x. c #5D5067",
"c. c #5A5866",
"v. c #53506D",
"b. c #5E506F",
"n. c #5E516F",
"m. c #5E516A",
"M. c #5B5968",
"N. c #545371",
"B. c #5F5171",
"V. c #595672",
"C. c #5A5871",
"Z. c #62546D",
"A. c #605270",
"S. c #665775",
"D. c #645671",
"F. c #675872",
"G. c #685972",
"H. c #908F98",
/* pixels */
"  X . o o o o o o O % 1 4 4 4 1 1 1 a a 1 1 4 4 - * = = = = - * % * & & * * % 4 R R D D D 4 4 4 a 4 1 a 4 % + + + O O o o o X X ",
". X X X o o O o o + & 1 1 1 4 1 1 c 1 4 1 1 4 4 - * * = & & * % % % % % % % % 4 q q q R R R G D G D D a 4 * % # # # + O O o X X ",
"X o o o o o o O o # * 1 1 1 1 a c a 1 4 a 4 4 4 - * % * = * % # # % * % % % * 4 q B B R :.u./ / { { G c 4 * + # + + + O O o o X ",
". X o o o O o O + + % , 4 1 1 4 c c a D D a 4 4 * * % % * * % % % % * % # % * 4 B O.O.O.u.t.4.{ X.G D c 4 % O + O + + O O o o o ",
". X o o O O o + + # % , c q 4 4 1 4 4 c c D { 4 * * % # % % % * * % % % % % * 6 *.+.+.u.l.u.t.4.X.G G a 4 % + # + O + + O o o o ",
". o o o o o + + o # * 4 c c a c 4 c 4 1 D G D 4 * * % # % * % * * % % % * % * r :.+.u.a.l.u.u.4.4.X.{ D 4 % # # + + + O o O o o ",
"o o o + O O O # # # * 4 c c c c / / c c D G c 4 - * # + % * % % % % % * * * - 6 O.u.g.j.A.j.a.*.p.*.*./ r * + # % # + O O + + o ",
"o o o O + # + # % % - 4 G / / c / 4.u./ c { D 4 * % % # % * % % % * % % * % * 5 R u.m.S.j.B.a.O.:.:.$.*.] % + # % O O # # + O O ",
"X o O O + # # # # % - , 4 c D c / / / D a / D 4 * * % % * # % * % % % % * * * 2 :.g.D.S.:.a.1.1.1.1.:.:.R * # # + + + O + # + + ",
"o o o O + # # # # # - , 1 c c c D c a G D D D D - % % % * % * % % - * * * * * 2 >.g.:.m.l.m.m.:.%.%.m.l.r * % # O # # o O + # + ",
"X o O + # + O # % + * 1 4 a 4 D G / a G D D D 4 - * * * * * * % * * * * - * - t l.l.:.:.1.m.l.:.:.O.<.<.<.- # % % + + O + + + + ",
"O + # % % % # % - - - 4 4 , - 4 r 4 4 , , , , - - - * - , , , - * * - - , , 4 ] *.<.t.t.>.>.z.>.>.<.R ] ] 2 % # # + % # + + + + ",
"% * , , - - , 4 a 4 , , * % * % * * * * * * * * - 2 4 4 D ^ D D D D { 4 4 H ] } p.p.v.v.v.p.p.p.p.p.p.{ H y t t 5 t t 3 , , : & ",
"= = ; ; ; 1 C { G D , , * % % % % * * % * * * * - 4 D D D p.D C { { G D G G } v.v.p.p.p.p.p.X.X.v.v.v.p.p.y u %.%.%.u t t u < > ",
"; ; ; 1 4 a G X.X.} 1 * * % % % % % * * * * * % * 4 D D C { D a D D G D G D { v.p.X.X.X.N.N.p.N.v.v.v.p.v.] u u %.%.u t u u < < ",
"; 1 ; ; 4 4 a G { G 4 * % % % % % % * - * # * % % 1 D 4 D G ^ D C c G a D D ] v.p.p.p.p.N.N.N.N.N.v.v.p.p.<.O.%.u $.$.u u u t < ",
"; ; 1 1 4 a D D D D 4 * % % % % % % * * * % * * * 1 D D 4 a D 4 4 c G G G D ] v.p.p.v.p.N.p.N.N.N.p.X.X.{ <.%.%.$.%.%.u u u 3 < ",
"; ; ; 1 4 a D G G X.r % % % % % # % * % % * % # * 4 c D a D D 4 4 D G { p.{ r.C.V.p.v.N.V.p.p.N.N.p.X.X.X.<.%.u i 1.u u :.u < < ",
"= ; 1 1 D D a D G G 4 * * * * * % % % % % % % * , 4 4 D D 4 4 4 4 4 4 r H { v.V.N.v.v.v.N.V.N.N.N.N.v.X.X.z.%.%.%.u u 1.1.i < < ",
"= - 1 4 4 D a a D G , & * - - * * % % * % % * % - 4 D 4 4 4 4 , * * % * - 4 H } X.v.v.p.N.V.N.p.N.N.N.v.X.>.%.1.u t u u :.%.u < ",
"* , 4 1 1 4 D a { } , % * * % % * % * * % % * % - 4 4 1 4 , 2 - * % % # % % - D p.p.p.p.V.p.p.p.X.o.N.N.v.z.1.%.%.u t t u i i < ",
"* - , ; ; 1 4 a { ^ - % % * % % * * * % % % % * , 4 , - , 2 * * * % # # % # , ] X.X.p.N.N.p.X.o.X.o.o.N.v.<.%.%.$.u t u u i u < ",
"% - - = 1 1 4 C { X.2 % % % # % % % * % % % % % * , , , , * % % % * * * % % , r ^ X.o.o.N.p.p.o.o.o.o.o.X.<.%.%.u t u i i u t < ",
"% - = - , 4 C D D D 4 % # % % % % % * * * % % % * - * , , * % % % * * % % * , ] X.X.X.o.p.p.V.N.o.N.o.o.{ y u u u u u u t u u < ",
"* - ; 1 4 D D D G D , * % % # % % % & * , * % % * * * * * - * % * % % % * * * ] p.X.X.o.v.v.o.o.o.p.p.p.p.<.<.t u %.%.t t u t t ",
"* - , 6 r 4 2 4 4 1 2 * * % % % % * , * > > * % * , - * * , , , , * * * - * * ] r.{ X.o.v.v.p.p.X.p.p.X.X.] t 3 t t u t 3 3 , , ",
"+ # # & * & % % * * 2 3 3 3 t 3 3 t t t t t t 5 , , , 2 4 2 2 2 , * , * % * - 6 <.>.z.n.z.>.>.1.>.>.>.>.<.t * * * * * % % % # # ",
"o O O # # # # # # % * t u t u $.u i i $.1.:.:.%.2 2 , , 4 4 2 , * * % * * * , i %.m.Z.Z.Z.1.1.1.1.1.%.1.1., * % % % % # % % # + ",
"o o o # % # # # % % * t %.u u $.%.1.%.u 1.%.1.%., 2 , , , , , , , * * - - * * i 1.m.Z.Z.m.m.Z.1.1.i i :.:., * * * % % % # + + + ",
"o o o + + + + # # + * t t i 1.$.1.1.1.i i %.1.u , , , , , 2 , - , * * - * * , i 1.Z.Z.F.F.Z.G.Z.1.%.%.%.u 2 % * * # % # O + + O ",
"o o o O + + # # # # % t i i i %.1.1.1.%.1.1.u u , * , - , 2 - * , * * * * * 2 t %.m.Z.m.Z.G.G.1.Z.1.i %.i , % % * % # # O + O + ",
"o O o o O + + # # + % u 1.1.x.:.1.1.:.1.1.1.1.u , - , 2 , , - * * * % * * , 2 i 1.l.m.:.Z.F.Z.x.Z.Z.1.1.1.2 % * - * % # + # # O ",
"o + + + + + O + O # * t u 1.Z.%.1.1.:.1.$.1.1.u , , , , , , , * - * % * * , , <.Z.m.l.1.:.1.1.1.1.m.Z.Z.x.2 * * % % # # # # + + ",
"X # % % # o O O O # % 3 u $.$.u 1.1.1.1.1.i u u 3 * * * * * * * * * * % * * - i m.Z.Z.m.:.m.1.:.%.1.Z.Z.1., % # % # # # % # + + ",
"X + # % # o O o O O * u i u u i %.%.%.u i i u i 3 % % % % % % % * % * * % * , i 1.Z.Z.Z.m.m.m.1.1.Z.l.l.%., % # % # # % % % # + ",
"o O o O + + O o o O * t u u u 1.$.1.1.i u i 1.%.2 - % % * % % % * % % * * * * t 1.1.1.Z.Z.m.1.1.1.l.1.l.<.* # # # % % # # % % + ",
". X o o + # + + # O > t u $.$.%.$.1.1.%.:.u %.:.3 * % # % * % * * * % * * * * t m.1.m.m.Z.Z.m.1.1.1.1.1.u , # # * % % # # % # + ",
"X o o O + # # O # + % t u u u i u %.1.l.1.u u %.3 % % % * * % % * % % * * * , i 1.m.m.m.Z.x.1.1.1.1.1.1.i * + # % % + # # # + # ",
"o O O + # # # # % + * 6 t u t t i <.u %.%.i <.<.2 * * , * * - * * * * & , , , %.%.%.%.%.%.%.i %.i i <.u t , % % % % % % % % % % ",
"+ # % # % % % % % * , y ] ] ] ] r.v.r.] ] y ..] r ] ] <.r.} ] ] y y t t u u t 6 , 2 2 2 - 2 * * , * * * * 2 4 r D r 4 2 4 4 2 2 ",
"+ # % # # # % % % * , { { p.p.p.v.p.p.} D D p.p.] p.4.p.V.v.p.p.p.>.l.t.:.1.%.- % * - * * % % # + % # # % , 4 4 D { ] D r y 6 2 ",
"+ # # # # # # % % * 2 p.X.p.{ X.p.{ { v.{ { p.X.] p.p.v.p.v.N.v.m.n.m.u.l.m.<.- % % % * - % # % # % # # # , r D D D r D D ] r 4 ",
"+ # # # # # + # # * , { { { ^ p.p.{ p.X.{ X.X.C y v.v.v.p.p.v.v.n.l.l.:.1.l.<.* % % % * % % % % # # # # # , D D { a a D D D C 4 ",
"+ # # + # + + + # % * D X.{ G { X.N.p.{ G D { H y *.t.*.t.g.t.z.m.l.l.l.:.1.%.- % * * % # % % % # # # + # , { { G D 4 4 4 a a r ",
"+ + O + + O + + # % * ] X.{ { { X.X.G G { G ^ { r <.:.O.:.:.:.1.l.m.Z.m.Z.m.1., % % * % % # # % % % # # % - D D { { D 4 4 4 4 4 ",
"+ + + # + o + # # % 2 } X.^ ^ { ^ G X.^ G p.v.D y >.:.O.%.1.l.1.z.Z.m.Z.m.m.>., % % % % % # % % # # # # % , D ] { D D r 4 ; 1 , ",
"O + # + + o o # # % - H G G ^ X.X.X.^ ^ G p.p.{ 5 <.:.%.:.m.1.:.1.m.1.1.l.l.%.* % % # + % % # # # % # # # , { { { r 4 4 1 1 , , ",
"X o O O + + o + # % * D r D { { ^ ^ a G X.G G { 4 O.:.:.a.l.1.:.1.:.%.1.1.l.%.* # % # % % * # + + # + + # - D C 4 4 4 , 1 4 , , ",
"X o o o # + + + + # * r 4 G D D a D a G X.G a a r :.:.+.O.l.l.l.:.:.%.1.1.1.i & + + # % # % # + + + + + # - 4 a 1 1 1 4 1 1 , , ",
"X X o o + o # + + # - ^ G G D D G a a a C C C D r <.:.:.O.1.1.1.%.l.1.$.$.%.u * # # # # # % # + O # + + % , 4 D 4 1 , 4 , 1 ; , ",
"X X X o o o # # # # * G D D C 4 G C D D 4 a C C 4 <.1.:.%.1.%.%.1.:.u u %.%.u & # # # # # # # + + # + # % - r 4 4 1 , , , 4 , 1 ",
"X X o o o O O O + # * 4 4 G C 1 C D ^ G a a C 4 4 <.%.%.:.%.i %.1.%.%.u %.u t > % # # % % % % # + # # % # * 4 4 4 4 4 - 1 4 1 , ",
"o + # # # + # # # % * , 4 1 1 - - , - - , - ; - 2 t t %.O.t <.:.O.O.<.t t t t 2 , - * - * * - % * 2 * * * * - , - , , - - = * * ",
"$ * > , , > , , , * * % # + # # # # # # % % % % - r D r ] D r D D r D r r r 6 r r 4 r D 4 1 r r 4 r 4 4 4 * % # # # + # # + O o ",
": > , > , < < < < , % O o O O + # + + + # O # # * r D r D G a D D D r 4 D 4 4 r r r D { D D D { D D r r , % # + O o X o o + O o ",
": > , , < < , < t , # o o O + + + + # # # + + # * 4 G D D D c a 4 4 4 1 4 4 4 4 D ] D { D H { D D D D 4 4 % # # O O o o o o o o ",
": > > < , < < < t , + + O O + + + + O % % # # # * 4 G 4 D D a a a 4 4 1 4 4 4 r { D c D a D 4 4 4 4 4 1 4 # O O O O o o o o o o ",
"$ : , , > < < < < > + o o o o o + O o + # # # # * 4 a 4 D D 4 1 4 4 1 1 1 ; 4 5 D D D c 4 4 1 1 1 4 ; ; - # O o + O o o o o o o ",
"@ : : > , , < : : > # o o o o o o o O o o o O O % 1 4 c D 1 1 4 1 1 1 1 ; ; 4 4 4 D 4 4 4 4 4 1 4 1 1 1 ; % O o o X X X o X X o ",
"$ : : : < < : : , : + X X X o o X X O o o o o O % 1 4 4 4 1 1 4 4 1 , = = ; , 4 4 D 4 1 1 4 4 4 4 1 1 1 - # + + O X X # c.# o X ",
"$ $ $ : > : : : , > + X o X X o . o X X . X X o % 4 4 1 1 4 1 , 4 - ; = = ; 1 r 4 1 ; ; 4 1 1 4 4 , 1 1 - # + # + o o c.H.c.X X ",
"@ $ $ : $ $ , > > & o o X X X X   o o X . X X o % 4 , - 1 1 ; - 1 ; - = = = - r , ; = - 4 4 , ; , , , , - % O O + o X # c.#   X ",
"@ $ $ & : $ : $ $ % + . X X . X . . X X X o o o % , ; ; 1 1 1 1 ; ; = = = = , 4 - ; 1 ; 4 4 1 ; , 1 1 - = # o o o o X X X .     ",
"@ @ $ $ $ $ $ $ $ & o . X X X X   . X X X . X o # , = 1 1 1 1 1 ; ; = = = = - , - ; ; = 1 1 ; ; ; = = = * # o X o o             "
};
