/* XPM */
static const char *player[] = {
/* columns rows colors chars-per-pixel */
"64 64 242 2 ",
"   c #0D0D17",
".  c #0E0E19",
"X  c #120F18",
"o  c #0F101C",
"O  c #12121D",
"+  c #1B161C",
"@  c #07030A",
"#  c #27191F",
"$  c #2E211E",
"%  c #0F1324",
"&  c #131422",
"*  c #131629",
"=  c #15192C",
"-  c #1A1C2C",
";  c #191825",
":  c #1A1E32",
">  c #161D36",
",  c #241C24",
"<  c #1D2238",
"1  c #262539",
"2  c #29263A",
"3  c #2C2A3E",
"4  c #262535",
"5  c #332B3B",
"6  c #34292F",
"7  c #562E1A",
"8  c #753914",
"9  c #6C3216",
"0  c #48363B",
"q  c #54352E",
"w  c #713A32",
"e  c #7A4617",
"r  c #5E432D",
"t  c #77442A",
"y  c #6E4933",
"u  c #1E294B",
"i  c #1A2447",
"p  c #1B2A58",
"a  c #2E2C41",
"s  c #242B48",
"d  c #312E42",
"f  c #392F46",
"g  c #2D314C",
"h  c #343145",
"j  c #363449",
"k  c #39364B",
"l  c #3C394D",
"z  c #3A3346",
"x  c #222E55",
"c  c #2B355A",
"v  c #3A3651",
"b  c #3D3B53",
"n  c #3D3C5A",
"m  c #333756",
"M  c #1D2F69",
"N  c #343D63",
"B  c #253570",
"V  c #41364C",
"C  c #433B4D",
"Z  c #4C3E4C",
"A  c #513E47",
"S  c #433D54",
"D  c #4A3E55",
"F  c #423E5A",
"G  c #374167",
"H  c #3D4A76",
"J  c #3D425B",
"K  c #49404D",
"L  c #46424C",
"P  c #444156",
"I  c #4B4355",
"U  c #45415D",
"Y  c #4C435B",
"T  c #4E4A5E",
"R  c #4E4855",
"E  c #52455D",
"W  c #54495E",
"Q  c #544957",
"!  c #5C515A",
"~  c #544B4C",
"^  c #6B5150",
"/  c #464361",
"(  c #4A4562",
")  c #4D4965",
"_  c #4E4C6A",
"`  c #444969",
"'  c #544760",
"]  c #554A63",
"[  c #5A4C65",
"{  c #514E6B",
"}  c #5B4E68",
"|  c #5C5365",
" . c #53516E",
".. c #5D516B",
"X. c #5C5667",
"o. c #464C76",
"O. c #545371",
"+. c #5A5A78",
"@. c #4C5272",
"#. c #62556D",
"$. c #685A67",
"%. c #645A71",
"&. c #7A5E60",
"*. c #6C646B",
"=. c #77656A",
"-. c #726B79",
";. c #6E656B",
":. c #853C10",
">. c #8A4B18",
",. c #AC5818",
"<. c #8A5B23",
"1. c #8A5632",
"2. c #8F6125",
"3. c #8E602D",
"4. c #966B2B",
"5. c #996C2C",
"6. c #916427",
"7. c #9C7335",
"8. c #986A3A",
"9. c #A37837",
"0. c #BC6520",
"q. c #A45A22",
"w. c #C37028",
"e. c #895959",
"r. c #8C534A",
"t. c #9A6C55",
"y. c #926A4A",
"u. c #A67A48",
"i. c #AB7A54",
"p. c #996868",
"a. c #866B74",
"s. c #967579",
"d. c #8A716B",
"f. c #A16766",
"g. c #B3756B",
"h. c #A57C7C",
"j. c #B2756F",
"k. c #C85B61",
"l. c #CB656A",
"z. c #CF7175",
"x. c #AB8557",
"c. c #B4855B",
"v. c #B48C4F",
"b. c #B78C6C",
"n. c #A69070",
"m. c #C89351",
"M. c #E8B159",
"N. c #C79078",
"B. c #C9A564",
"V. c #D8B677",
"C. c #D1AC74",
"Z. c #E6B565",
"A. c #DCA452",
"S. c #F5C867",
"D. c #ECC779",
"F. c #F6CD78",
"G. c #FAD37F",
"H. c #273A8C",
"J. c #2D3FA5",
"K. c #354497",
"L. c #304A91",
"P. c #314DA4",
"I. c #3E60BA",
"U. c #4B5887",
"Y. c #495896",
"T. c #525E8B",
"R. c #586699",
"E. c #57628D",
"W. c #6E708B",
"Q. c #4766A8",
"!. c #5A6BA4",
"~. c #5571B6",
"^. c #6474AA",
"/. c #677BB9",
"(. c #616EA7",
"). c #587AC3",
"_. c #667CC7",
"`. c #3063D3",
"'. c #877A85",
"]. c #967B85",
"[. c #7482BA",
"{. c #5D82C2",
"}. c #6A84C7",
"|. c #748ACB",
" X c #6E88D5",
".X c #738DD4",
"XX c #7691DA",
"oX c #718CE2",
"OX c #958892",
"+X c #A89598",
"@X c #B59496",
"#X c #AC878C",
"$X c #B7A59D",
"%X c #8384A9",
"&X c #AF95A4",
"*X c #B5ACB1",
"=X c #C98B88",
"-X c #D88486",
";X c #C99797",
":X c #DB9E9C",
">X c #D69997",
",X c #CA9380",
"<X c #E79699",
"1X c #E18B8D",
"2X c #D8BB87",
"3X c #DCA19D",
"4X c #D7A09B",
"5X c #CFAD8F",
"6X c #E2AE9B",
"7X c #DCA4A1",
"8X c #D9A9A8",
"9X c #D8B9B5",
"0X c #CDAFAD",
"qX c #E4A9A6",
"wX c #E3B5AC",
"eX c #E8BAB5",
"rX c #EFB7B5",
"tX c #DB9EA3",
"yX c #DEC08A",
"uX c #F9D384",
"iX c #EECE92",
"pX c #DBC8B9",
"aX c #EAC6B8",
"sX c #F8DDB6",
"dX c #F4D1B0",
"fX c #FAE1B0",
"gX c #ACB0C9",
"hX c #CFBBC2",
"jX c #D5C8CC",
"kX c #D6CDCF",
"lX c #FCCBC5",
"zX c #F9C9C4",
"xX c #FBDDCC",
"cX c #F8D7C9",
"vX c #F0D5CB",
"bX c #FCE4CD",
"nX c #FBE7CB",
"mX c #FDE5D0",
"MX c #FCECD3",
"NX c #F8EDD6",
"BX c #F8E6E6",
"VX c #E7DEE1",
/* pixels */
"4 2 1 3 3 3 3 3 3 a j F F / U F F F U / F F U U n l l v l v b l j k k j k k k U ( ( ( ( / U U U / U F U U j d d d d 3 3 3 3 2 2 ",
"1 2 2 2 3 3 a 3 3 d l F F F U F F / F U F F U U b l l v l l l k j j k k j j j U U U U ( ( ( ( ( ( ( ( / U l j h h h d a a 3 2 2 ",
"1 3 3 3 3 3 3 3 3 h l F F F F U / / F U U U U U b l j l l l j h h j l j j k l U U ( Y ( ] { ) ( ) _ ( / U l d d d d d a a 3 3 2 ",
"1 2 3 3 3 a 3 a h d k n U F F U / / / / / F F P C C C I R R K L C k j h h j l U ( ' ' ' ] { { ) _ ( ( / U j a d a d d a a 3 3 3 ",
"1 3 3 3 a a 3 d d h k S / U U U F U | *.d.d.x.v.B.B.V.V.V.2X2X2X2XN.n.=.! C l U ] ] ] ] } ] { _ _ ( ( / U j d h d a d d a 3 3 3 ",
"1 3 3 3 3 3 d d 3 h l U / U F ] '.$X2XD.S.S.F.uXuXG.F.S.S.S.S.S.F.G.uXuXiX2Xn.=.[ ' ] [ } ] { { _ ) ) ( U k h h d d d a 3 a 3 3 ",
"2 3 3 d 3 a a h h h l U U ' OXpXsXG.S.S.uXdXnXnXfXfXiXD.D.F.F.Z.M.M.Z.M.A.M.Z.Z.B.x.$.} ....} ] { ] ] ) Y l d h j h d 3 a d d 3 ",
"3 3 3 a d h d h j j b F %.0XbXsXF.uXdXsXbXbXbXnX2XdXfXC.9.B.iXC.9.9.9.7.4.<.<.6.9.v.v.t.#...} ' ] ] ' ] ) l d h j a a h h d a d ",
"2 3 a a d h h d h k l | pXmXbXsXsXnXbXmXbXnXMXsXb.C.fXiX9.5.B.iXv.4.5.5.5.4.2.>.e e e >.y Q [ ] [ [ ] ] ) l h h d d d a d h d d ",
"3 3 3 a d h h h h h l $XmXmXxXbXbXbXbXbXnXMXMXyXu.8.D.uXv.5.7.V.iXx.4.5.5.5.5.5.6.>.e e e y W ] ] ] } } Y b j h a h h 3 a d h d ",
"2 3 a d h d a h j a R vXmXbXbXbXbXbXbXMXMXMXyXv.y.N.C.Z.B.x.7.9.yXyXv.5.5.5.5.4.4.6.<.e e t Z ] ] ' ' ] ' b h j j d d a d d d d ",
"a h h k j j h j b l *.xXbXxXbXbXbXnXMXMXnX2Xi.i.p.e.e.f.x.x.x.7.9.v.9.6.6.2.2.2.2.2.2.2.3.y.! ] ] ' ( ) ) P j h h h j h h d d d ",
"j l S S b b S U / n *.bXmXxXbXbXMXMXMXdXb.y.g.h.^ &.^ q q t 1.3.<.<.<.<.2.2.2.2.2.2.2.8.x.5X-.) { { { ) ( Y Y Y I Y Y I D D V l ",
"v v n n F F / ) ( / X.vXxXcXxXmXMXsXC.u.t.q $ + . . + 3 0 q r.t.t.r.1.t t 9 7 7 7 7 q ~ *XgX) _  . . .{ { Y E ] ] ] E Y Y E D C ",
"n n n F U / ( ) _ ) W vXmXcXlXlX6Xu.u.N.:Xh.0 R P.M p P.gX$X#X;X3X:X=Xt.6 * . p W.L 6 *.jXW._  . . . .{ | ) E E ] ] E Y E E D D ",
"F F n n U U / ( ) / $.vXmXxXlXzXb.e g.7X:X7X:X@XOX/.[.gXVXBXkX0X3X3X3Xh.^.~.P./.gXd.;XhXOX_ O.O.O. . .{ { ' E ] E E E E E E Y D ",
"n n F F U / / ( ( F OXbXbXbXlXaXc.4.c.3X;X:X3X3X3X:X4X4X7X7X7X7X3X3X3X7XeXhX9X8X:X3XrX*X_ {  .O.O.{ _ _ ) ' ] ] E ] ] E E E I D ",
"n n n F U / ( ( / X.pXxXaXbXcXaXx.4.c.3X=X;X3X3X3X3X3X3X3X:X:X:X:X>Xz.l.1XqX<X<X<X-X8X+X_ { _ O.O.{ _ _ { ] ] E E ] E E [ E D D ",
"v n F F ( ( / ( U +XnXaX7XzXcXaXu.4.i.3X=Xj.3X3X3X3X3X3X3X>Xz.l.z.z.l.k.k.z.-Xz.j.f.5XkX+.O.O.O.O.O. ._ _ ] ] ] ' E E ] } E D D ",
"v b F U U ( / F '.bXxXqX:XeXxXwX7.4.i.4X=Xt p.=X:X3X3X3X3X3X-Xz.l.z.z.k.l.=Xj.f.w 7 1.aX*X .O.{  . .O.{ { ] ] ] E Y Y E [ ] E D ",
"l S U F F U / T 0XxXwX3X3X7XcX5X4.4.c.7X,Xy X # 0 ^ p.#X=X>X:X3X>X-X-X1X>Xj.r.9 7 9 8 c.VX-._  ._ _ O.O. .] ] ] ] E D E Y E E D ",
"l b F n n F U / X.0X8X:X:X3XaX,Xc.i.,X7XN.y @ @ @ O 6 w w r.r.e.f.g.g.g.r.8 9 8 :.>.>.q.aX*XY _ _ _ _ O. .' E ' ' E Y E E E E D ",
"k b b v F F U F %.jXvXwX3X3XwX7X3X4X3X3Xb.r & . 4 l l V &.j.p.A 5 q 7 9 9 8 >.,.,.0.0.w.6XVX..{ { { _ _ _ ' ] ] E Y E E E E Y D ",
"j b b b F F ) '.kXBXBXBXzXwXwX3X3X3X3X4Xs.` s < 3 a g j C =.;X;Xa.g g j h 6 y m.A.A.M.M.6X*X+.O._  ._ _ ) ) E E E E E E Y E E D ",
"l b b F U U W.jXBXBXNXmXxXeX3X3X7X;X].| g = & & p L.L.P C S R a.#XI / / U n v ^ m.Z.b.d.*. ._ _ _ { { { { ' W Y E ] ' Y Y E Y Y ",
"k b S Y Y P P T *.'.$XpX9X8X;X+XW.n - . O $ r d.I.`.Q.U C k h d Q C j b C P v > 6 ~ U _  .{ _ { _ { { _ _ ) Y D I Y E Y I I D D ",
"d h h l l l k k l j S T %X%Xo.s * O # q 8.m.M.Z.OXK.H.u < : < 1 1 3 1 - = = M L.p > 1 l ) ] [ [ ] ] ] ] ' Y l k l l l k l k h h ",
"3 a 3 h h j h h h k k T.}.` ; ; 6 r r.y.t.t.y.&.^ n M i = : : < < : - * & > i M L.L.B i 1 l Y [ [ } ] ] [ D l k j k j h j j h d ",
"3 3 3 h h d h h j k l ` {.}.) z E ] E Y ' E ] ' S S m B > : - - : - = = = u > = = i B B s a U W ] E E [ [ P l l l j k h h d d d ",
"3 3 3 d d d d h h h l I ` ~.{.@.C ] } ' E ] [ E D C / K.H.i o & ; ; & & o * 1 - = < B Y.E.+...#.[ W E ] E P l l l h k h a d d a ",
"3 3 3 a d d d h h h k I E / Q.{.@.D E ] ] ] E E S Y Y.J.H.*       . . . . , p.s.=.+.H.Y.+.%.%.} ..} E ] W S k k l j h h a d a d ",
"3 a 3 3 a d d d h h k Y [ ] ) Q.~._ D Y ] ] [ E R R.J.P.p .         . .   5 #X;X4X$Xo.` } %.#.| #.#.[ [ [ P k l b l j h h h h a ",
"3 d d d d d a d d h l Y E [ [ H ~.U.I Q W E [ Y E.H.H.H.*   .   . O + + O O , 5 v $.I E [ } [ } [ ..#.#.| P l l j j h h h h d d ",
"2 h j k h 3 a a a h k I E ' E N Q.OX$X9X9X+X'.W.K.M x > o O O O . 6 s.&.+     o > h [ ..[ ..} [ ' } #.#.[ D k h j h d h j h d d ",
"2 d h j h 3 a 3 a a l E E E Y F H -.OX@X7XwX9XOXm s < O . . . . . + 6 , .       * s U #.......[ } #.} } ] S j h j h h j h j h d ",
"3 a 3 a d d a 3 3 a l Y E E E ] D E E A f.OX+.m s s = . . . . . . . . .         . > m ] #...} } [ ..} ..] l h h h k k h h k j d ",
"1 3 3 3 d h d d h d C Y E ' ] ] ' [ [ I '.Y.p u u : . . . .         . . . . . .   % c @.} #...} [ } [ [ E S h h l l j h h h h d ",
"2 3 3 a d h h a h d k Y E E E E E ' ] | Y.B u u < & . . . . . . .       . .   .   o < R.{ } [ } ] [ [ ] E l d h k j d h h h d h ",
"3 3 a d h h h h h d l Y Y E Y Y ' ' I R.K.x u i % . . . .           . . . . .     . & o.(.I W ] W W W E Y S j k j j j j k k j k ",
"d h h h k j j j k l S T ) ) ) ) { { _ L.B s j z 6 , , , , # , ; O ; O O & & & O O ; O s ^.U l l S l l l l P U U ( U U S U U P P ",
"d h k h h h j j k l S ) ) { { _  .{ ) ( U n $.;X=X].p.r.r.r.=.) U R Q K K K K K R W.h h b j h h d j h h j S U U ( ) ) ( Y ) Y U ",
"h h h h h h h k j l P { _ { ) _ { ) _ { _ ( -.lXlXlXrX=Xj.p.#. ...] $.=.a.a.a.s.#X+Xk l l j h j h j h h h S U ( ( ( Y ( ( ) Y U ",
"d h h d h h d h h l S ) ) ) ( { _ ) { _ ) ) *.zXlXlXrX3X3Xa.] ....[ $.;X:X:X3X3XqX+Xk l k k k j h h h h h S ( ( ) / / ( ( ( / U ",
"d h h d d d d d h k l ( _ ) ( ) _ O.{ ) ( / $.zXlXlXwX3X;X| ] ....} E s.3X3X3X3X7X@Xl j h j j j h h h d h S ) ) ( ( U U U / / U ",
"d d a d a a d d h k l ) _ ) ) ) _ _ ( ( ) ( $.zXlXzXqX3Xa.Y [ ] [ #...$.;X3X3X3X8X+Xk k j h h j h j h h k b ( ( ) ) / U U U U U ",
"d d d h d 3 d h h h P ) ) ) ( ) ) ( ) ) ( { $.aXlXaXqX;X! ] [ [ | #...W ;X3X3X3X8X-.h k j h j j h h h h j S ( ) ) ( ( U U n F S ",
"a d h d d 3 3 h h k b ( ( ( ) _ _ _ ( ( ( _ | eXlXrXqX].E ..[ ] [ } E I @X4X3X3X@Xz h h j j h h h j h d h S ) ) ) ( U U F F S S ",
"2 3 a a d d 3 d h j l ( / ( ) ) ( ( / U v j Z #X@Xs.d.$.Y } [ ] [ ] 3 , 5 A ~ ^ 0 - 3 j k l h d d h d d h b ( / U U F F F U F S ",
"2 3 3 3 h d d d d h l U U ( ( ( / / / F a = O ; - &    .] [ } } [ [ 5 O           ; 2 j h k h d d d d d h b U / F F F F F F S S ",
"2 2 3 3 d 3 h d d h b ( ( ( ( ( ( / / U a = . & = & O +.Y [ [ [ ] } V & . . . .   ; 2 h h k h a a h d d k S U ( U F S U S F n S ",
"2 2 2 3 3 3 h h h h l ( ( ( / U ( / / / a : . & = & - W.Y [ ] ] [ [ D ; . . . . . & 2 h h h h d d h d h k b U U U F S S S U S F ",
"2 2 3 3 3 3 a 3 d h l U U ( / F / / ) ( h : . & = o 2 W.E ] W ] ] ] E 4 . . . .   & 3 h j j h h d h h h h l U U U U U n F U F n ",
"3 d h h h d h h h j l S U S F b n n n n h = o & & . m O.Y Y ' ] ' E ' 3 O     .   ; 3 l l l b k l S l l l l b S n S S n b b l l ",
"z l C D C C S D S l l k h d h h h h h h 2 - . & & o ` U ( ( Y ( Y Y ( b ; . . . . & d ( U F Y Y U U U U U l j h h h d h h d d 3 ",
"V C S V S D D D D D k a 3 a a d h d d d 2 - . & O ; ` U ( ( / ( ( ( ( U 4 O   . . O k ) ( ( ( ) ( ( Y U S k h d a 3 2 3 3 d 3 3 ",
"V V S S D D S D Y D h a 3 a a d d d h j 3 ; . & . ; l ( ( ( / / U U U U d &     . - S ) ( ( ) ( ( ( ( U U j h h 3 3 3 3 3 3 3 3 ",
"V V V D S D D D Y S d 3 a a d d d d 3 h d ; o & . O h / ( ( / / / U U U b ;   . . 2 U ( U ( U U U U U F U h 3 d a 3 3 3 3 3 3 3 ",
"z V S S V D D D D C d 3 3 3 3 3 d a 3 d 3 4 o O . O d U ( ( U F U U F F F - . . O d ( / / U F F F U n n n h 3 3 d a 2 2 3 3 3 3 ",
"f l V S S S S V V C h 3 3 3 3 3 3 3 3 3 3 3 o O : s a / ( F F U U F F F l U 1 . O 3 n U U U U F U F F F n j a 3 3 2 2 2 3 3 3 3 ",
"f V V V D D V V S V d 2 2 2 3 3 2 2 3 2 l d . . N /.g U U F F U U F F v h v = . . 2 h n F U U U U F F F n h d d d 2 2 h | h 3 3 ",
"f z z V C V V V C V 3 2 2 2 2 3 2 a a a J - . & c /.m U / / / U / U J n a ; o o . - j n / U U U U S S n b d 3 3 3 2 3 | OX| 2 1 ",
"d f k F F / @.o.U.U.U.Y.!.!.~.~.)._._._.s   . & c R.N /././.}.}.}.}.}.|.R.% o .   O ` |..X|.|.}.[././.(.R.R.T.U.@.@.` ` -.n a 3 ",
"K Y  .+.R.(./._.}. X XoXoX X X X}.}._./.N i s s G U.G U.Y.Y.Y.Q.!.~.~.!.H s s s s g o./. X X.X.X X X X X X.X X.XXXXXXXXX.X|.}./.",
"I C C C C C C C P U U / ` / U S b n n ` U.U.U.T.R.R.R.!.!.(.(.(.^.^.^.!.R.R.R.R.R.R.!.R.!.!.R.R.T.U.o.H G m g x c c c N N G G G "
};
