/* XPM */
static const char *wall[] = {
/* columns rows colors chars-per-pixel */
"64 64 158 2 ",
"   c #16121A",
".  c #19151D",
"X  c #1A1621",
"o  c #1E1924",
"O  c #1F1B28",
"+  c #211C26",
"@  c #231E2B",
"#  c #241F30",
"$  c #26212D",
"%  c #29232E",
"&  c #262232",
"*  c #2A2536",
"=  c #2A2435",
"-  c #2C2535",
";  c #2D2634",
":  c #2C2635",
">  c #2D2737",
",  c #2E2736",
"<  c #2E2737",
"1  c #2B2533",
"2  c #2D2830",
"3  c #2F2832",
"4  c #2F2933",
"5  c #2F2837",
"6  c #2E2835",
"7  c #292538",
"8  c #2B2538",
"9  c #292639",
"0  c #2A2638",
"q  c #2B2638",
"w  c #2B2738",
"e  c #2A2639",
"r  c #2B273A",
"t  c #2B263B",
"y  c #2C2739",
"u  c #2D2739",
"i  c #2C273A",
"p  c #2C273C",
"a  c #2C2639",
"s  c #2D2839",
"d  c #2F2838",
"f  c #2C283B",
"g  c #2D283B",
"h  c #2E283B",
"j  c #2F293B",
"k  c #2C283C",
"l  c #2D283C",
"z  c #2C283D",
"x  c #2D283D",
"c  c #2D293D",
"v  c #2E293D",
"b  c #2E293C",
"n  c #2E2A3C",
"m  c #2E293E",
"M  c #2F293E",
"N  c #2E293F",
"B  c #2F2A3E",
"V  c #2F2B3E",
"C  c #2F2B3F",
"Z  c #2E293B",
"A  c #302736",
"S  c #302933",
"D  c #312A37",
"F  c #312B37",
"G  c #332B37",
"H  c #332C36",
"J  c #342D37",
"K  c #312A36",
"L  c #332A38",
"P  c #30293A",
"I  c #332C39",
"U  c #322C3A",
"Y  c #332C3B",
"T  c #352E38",
"R  c #362D3B",
"E  c #302A3C",
"W  c #302B3D",
"Q  c #322C3E",
"!  c #332C3F",
"~  c #332D3F",
"^  c #342D3C",
"/  c #332B3C",
"(  c #382E3E",
")  c #37303E",
"_  c #38313A",
"`  c #39313F",
"'  c #2E2A40",
"]  c #2F2A40",
"[  c #2F2B40",
"{  c #2F2B41",
"}  c #2F2B40",
"|  c #302B40",
" . c #302C41",
".. c #312C41",
"X. c #302C42",
"o. c #312C42",
"O. c #312D42",
"+. c #322D42",
"@. c #332E44",
"#. c #332F45",
"$. c #342F45",
"%. c #352F45",
"&. c #342D42",
"*. c #392F41",
"=. c #342F48",
"-. c #343047",
";. c #353147",
":. c #363145",
">. c #3C3243",
",. c #3B3244",
"<. c #3F3846",
"1. c #373249",
"2. c #363149",
"3. c #3B354C",
"4. c #3E384D",
"5. c #3C3650",
"6. c #3E3952",
"7. c #413547",
"8. c #443A47",
"9. c #42364A",
"0. c #413548",
"q. c #44374C",
"w. c #42364B",
"e. c #443849",
"r. c #44394B",
"t. c #45384D",
"y. c #44384D",
"u. c #45394E",
"i. c #46394F",
"p. c #473A4F",
"a. c #463A4F",
"s. c #44394E",
"d. c #483C4F",
"f. c #493C4E",
"g. c #473A50",
"h. c #473B50",
"j. c #433B54",
"k. c #483B50",
"l. c #483C51",
"z. c #483C52",
"x. c #493D53",
"c. c #4B3E54",
"v. c #4B3F54",
"b. c #4A3D54",
"n. c #443E59",
"m. c #4E3F58",
"M. c #464054",
"N. c #4D4255",
"B. c #46405B",
"V. c #4C425B",
"C. c #52435B",
"Z. c #55485C",
"A. c #594C5F",
"S. c #4C4661",
"D. c #564660",
"F. c #554962",
"G. c #5B4C63",
"H. c #5E4F69",
/* pixels */
"o + . + + + . X o o + @ + $ @ @ o X . & = = g m = = m y g y w + + + + + + 1 1 1 1 + o + + @ + @ 1 @ o + @ o o + @ + o O o o X X ",
"o + + + @ + . o o O @ O + @ $ + X O X w m p m | m w w m { m w o $ % = + $ 1 1 1 1 + + o & & & = = = , = @ @ o + & $ @ + O X X X ",
"o $ $ @ + + . + o + + O o + & $ @ + X m O.........p w O.;.O.w + = , , 1 1 y g , = @ $ + = = = = m m y = & @ o @ & @ $ @ @ O O o ",
"X + + + + $ X + + O o o @ $ @ @ $ + o ..1.$.$.$.;.{ w { { { m + = 1 = = = y L , 1 1 @ + = w g g m g = = & & + @ @ & & @ O O + o ",
". o + o + +   o o o X o + + + + + o   $ m ....m ....m { O.{ w o 1 1 1 $ 1 $ = @ @ = @ . @ & = = = = 1 & & $ . X @ @ O O o X X . ",
". + + $ + $ $ + + o . $ 1 S 1 3 3 H T T U S 1 + + % $ % = 1 1 3 % % $ + $ % 1 S H H S _ 1 % % + + % % % % % % $ + + . o + $ + o ",
"$ = = m w y w g Q = L 0.0.g.i.i.x.b.x.i.i.x.y.T 1 5 , 5 R U U R U 5 5 % r.z.z.b.x.i.g.i.i.i.i.>.S / / / Q Q Q m / , $ g w m = 1 ",
"@ & & w g g m m | w L 0.q.v.b.q.i.b.C.g.i.y.0., $ , L R R R Q L L 1 = @ q.g.x.0.0.g.z.b.b.b.b.>.= | *.*.*...m m m = + m w m w = ",
"& = = = g Q | m | m L *.,.x.b.g.b.v.b.z.b.z.q.R % g R *.R Q Q , , = = @ i.V.v.i.g.q.g.C.V.V.x.0.L ;.*.Q $...m m = & + y w { { = ",
"@ @ @ & = Q m ..O.w L 0.0.i.b.g.g.z.g.b.g.q.,.R $ 1 , g L y L L g , , % i.b.V.C.C.V.V.m.C.i.>.*., g g = m ..| | = # o m m w w = ",
"@ @ & = = y m m m = % >.0.0.g.0.0.b.g.z.0.y.,.1 + & , , y g g , = , = + ( 0.q.z.V.C.C.b.i.q.0., $ Q Q Q Q ..m m w = o w w w w = ",
"$ % % 3 1 % + @ $ % 3 S S T U S % S R ) R ) T U H 5 3 % % 3 3 1 = 1 1 S H S 3 % % 1 L T T R T H 5 L 5 , $ % 5 S 5 5 H S = = $ + ",
"L R *.>.7.0.% % , U R U U R / L 1 4.n.n.B.B.B.n.B.j.j.;.S *.R R ,.*.R ,.<.,.R R , :.3.6.n.n.B.B.n.3.3.1.L i.x.x.x.z.x.r.0.,.,.( ",
"L L R *.*.>.$ = , , , , L 5 1 = $ 3.4.6.n.n.6.6.6.5.5.g = R *./ *.g , g R Q L L $ ..$.3.j.j.j.j.6.1.;...= q.q.q.i.0.,.*.,.R *.R ",
"R *.R *.>.>.% , g y = g *.L = , $ ;.5.6.n.n.3.3.3.5.6.:., Q Q *.*.Q Q y *.,.,.,.1 / 1.5.B.n.6.3.n.3.1...% g.b.b.v.g.>.*.,.0.R ( ",
">.0.*.*.>.>.% = y g g / R R , = = 3.n.n.n.6.6.6.5.5.5.;.L *./ *.Q Q *.Q ,.<.<.,.g ;.4.n.B.n.n.j.B.n.6.1.5 g.v.V.z.i.i.g.x.z.0.7.",
"*.>.( *.>.>.@ , y L Q = 1 , , 1 $ ;.j.n.n.n.n.n.B.j.6...= *.Q y L *.Q Q ,.<.<.*.1 ..1.3.j.n.6.6.n.n.5.1.= g.v.g.>.q.q.0.q.>.7.*.",
"1 % % A L A + @ $ & $ o + @ @ + . = *.*.......1.3.1...+ $ , = 1 , = $ = L L , = @ = { ..$.....O.O.$...m $ ,.0.*.L / 1 R >.( / A ",
"o + + % 3 1 S = $ @ $ 5 U ) R ) ,.<.,.,.:./ L = 5 U ,.r.4.,./ 5 / L % $ = = % = S H 1 L 1 % % 5 5 ) :.,.<.<.R g , % + $ = % $ $ ",
"o + 1 = L L g g Q , / 1.3.4.3.4.4.4.j.4.6.j.j.L 4.n.B.n.B.n.6.j.n.5.1., R Q Q L Q g g L L L 1 6.n.n.n.n.B.B.n.6.3.1.1 , , , 1 $ ",
"+ = , 1 $ , g , L & m 4.j.4.4.4.O.1.3.3.3.6.j.g 3.S.n.3.6.6.n.n.6.3.O.1 L Q / R *.R *.,.Q L $ 3.n.B.n.6.3.j.n.j.3.3.1 = = g , @ ",
"@ = 5 1 $ = = = / = Q 3.j.n.n.4.3.j.6.;.1.1.3.g 6.n.2.1.6.n.n.n.n.6.1.$ Q L , L R *.,.,.*.R % 3.4.n.n.5.6.n.n.j.3.1.1 g L g , 1 ",
"@ 1 1 1 g / g Q *., g 3.4.4.4.3.1.j.j.4.4.1.;.1 3.5.5.n.B.B.n.B.n.5.3., R L g Q Q R Q Q Q y @ 1.3.j.5.n.n.n.n.n.3.3.= Q L L = $ ",
"o @ @ @ & = L L g $ = O.O.;.$.3.3.3.4.3.3.1.$.1 1.=.3.6.6.j.n.n.n.6.| $ L L / / Q y @ & = 1 + $.3.5.6.n.j.j.j.6.5.3.@ 1 = g = @ ",
"$ = $ % % $ + $ $ $ % 1 5 , 5 L = 3 $ + , 5 = 1 1 = 1 g = , = = ) :.U H 3 5 = = @ o $ S T T T T = / g = $ + , g / 5 $ % % 1 $ + ",
",.4.j.n.n.6.5 5 5 5 5 5 U T ` S 5 T S 1 ,.,.,.,.U ( L ,.R L 1 <.B.B.S.F.V.V.B.n.;.8.C.G.G.G.G.Z.N.Z.z.0.>.1 R ,.<.) ) ` R R L = ",
";.3.4.j.n.6.= 1 1 & 1 , 1 = 5 1 $ S % % *.<.>.Q y g L *.R g + *.6.n.n.V.B.n.B.6.$.i.V.C.C.C.b.g.g.b.V.m.0.1 Q *.Q = g = 1 1 & @ ",
";.3.1.4.4.3.= = L g , g L g g L , = $ = ,.<.>.*.,.*.,.>.,.R = ;.3.n.V.S.V.j.n.j.m 0.D.H.G.Z.V.V.Z.V.z.V.7.S ;.*.L L Q Q L g , 1 ",
"..;.;.j.4.3.= 1 , , , L Q R L L Q L S 1 *.*.*.L ,.,.*.*.*.R 1 / 1.6.n.V.V.6.3.n.;.0.C.G.D.m.V.Z.F.v.x.v.z.5 *.,.*.R *./ y = = $ ",
"......3.1.1.$ = 5 , R L g L R R R S , $ y , , g *.,.,.*.,.R % / 3.1.1.6.n.6.n.n.:.>.C.v.z.b.b.V.C.b.g.g.>.1 *.*.R *.Q = & & @ + ",
"+ $ = = = = + + @ @ @ % = 1 1 1 = % $ $ % % = % % 1 = % = $ + = g g g m / g / / % S 7.<.,.>.>.*.,.,.R L 1 @ 1 $ + @ + + o + + o ",
"$ % % = S H ` T U S 3 f.f.N.N.Z.Z.A.G.A.Z.Z.N.>.3 ` ` ) R L ` >.R ` ,.5 ,.M.N.r.<.d.s.z.y.y.y.,.% S L L U ,.) U 5 % @ = / ../ / ",
"+ $ @ $ , 1 y g , = S v.z.C.G.C.D.G.D.C.C.C.C.>., *.,.*.*.Q , , y g = $ ,.S.V.n.3.5.n.B.n.n.n.6.g R R *.g Q *.*.*.y + m 1.O.{ w ",
"@ $ @ @ , , , , = = , b.b.V.C.g.m.D.C.C.V.C.C.>.1 R Q Q Q R Q Q y 1 1 & 3.V.B.n.6.6.B.V.n.6.3.1.= *.*.g Q R L g , 1 + m O.m = w ",
"+ $ , = 5 = , & 1 1 S N.b.z.q.z.C.D.C.v.v.b.z.R = L , L / / L g g y , = 3.n.n.S.n.n.B.B.n.6.6.3.5 Q R Q *.*.L , 1 1 $ ..1.m g w ",
"o @ = 5 g 1 = @ @ & 1 i.i.v.v.G.C.C.C.g.g.b.V.>.1 , = L Q g g , = , 1 $ 3.j.n.n.3.5.3.6.n.B.5.1.1 , R R L Q Q , , = + m 1...w & ",
"o + @ $ = , = $ 1 $ @ q.v.C.C.C.C.C.C.v.V.z.v.,.$ y = g g g , , , = = $ ..n.n.n.5.5.2.3.n.j.1.O.$ g R L , L y , g , + w ..w p = ",
". o + o + @ + + + + $ L ( R ( R L R T ,.,.L / % $ $ + $ + o + + + @ $ @ % g g g = = = g m g = & $ % = $ @ + o + @ $ + $ @ + + + ",
"1 S 5 % / :./ :./ :.4.<.r.<.,.,.) 5 :.<.y.j.j.N.V.j.z.z.4./ % S ) <.,.,.>.T U S 5 1 % L L R R :.<.,.,.R L 3 ,.<.r.r.y.r.,.,.) U ",
", , 1 $ m ....;.;.w & w y | Q Q Q = 4.n.B.V.V.B.B.j.n.V.j.1.$ = R R Q L Q R L g g 1 = *.$.*.*.y w *.g m y = <.<.4.1.,.*.1.4.,.*.",
"$ 1 = + w ..;.1.3...w w = ..| ..Q = j.n.6.n.B.n.V.6.6.B.1.;.= R *.L L , y R Q R , % = ,.1.*.*.m = Q Q w = = 1.4.j.4.<.*.*.1.;.R ",
"$ 1 = + w m O...$.$...w m ;.*.*.Q = 6.6.4.j.j.n.n.5.V.V.5.;.= Q Q L L y L *.R R y $ 1 *.*.R Q m *.*.Q m @ = 1.4.y.y.1.Q g m g L ",
"$ = @ + m Q | ..m m { $.;.1.$.;./ = n.n.n.B.6.6.6.n.B.6.5.1.= g y R R / ,.,.*.R g $ = *.*.*.*.| ,.,.:.L & = 3.4.4.,.*.*.*.y Q 5 ",
"+ 1 + o w w w w w w z m ;.$.....Q & j.j.6.5.3.5.j.n.j.5.5.O.$ = = , y Q R *.R L , $ + m m m | *.*.*.*.m & $ <.1.1...m m m ../ L ",
"o + + + @ + o o o X o + $ $ $ $ $ $ g / / = & = w g m / w = $ $ $ @ + + @ $ % % $ + $ 1 $ @ + + @ 1 $ + + $ = , = $ + o + $ = $ ",
"R >.>.i.0.>.( >.>.% 1 U ) T U L U ` ` ) R L 5 = = U 1.y.j.n.M.M.z.j.y.L r.v.Z.Z.N.N.Z.Z.x.7.( / 4.j.j.j.j.z.4.4.1./ g g $ % S % ",
"R *.,.>.>.>.0.i.y.A = = g 5 1 , g , = = = , g , = Q 3.5.j.j.6.j.6.3.4./ v.V.v.z.z.v.b.v.V.V.i.;.n.n.n.n.6.1.1.O.O...| m + 1 = @ ",
"R >.0.0.0.0.0.0.q.A = , , L L L = 1 1 1 , / Q Q , g 3.5.5.5.6.6.6.3.3.L i.z.x.z.C.m.v.x.x.v.>.;.B.B.B.n.j.3.;.O.| 3.1.w + 1 1 $ ",
", / >.>.i.q.0.>.0.S 1 = g L L L = y 1 1 R Q R R 1 = ;.3.5.n.n.5.6.6.3.m i.g.v.b.C.C.b.i.y.i.7...5.j.6.j.n.6.6.6.;.1.;.m + $ $ @ ",
"L / L *.0.>.g.y.0., + % , L L , 1 $ & , R Q *.*., g O...5.3.1.5.6.3.O.g g.z.v.b.C.D.v.g.z.z.>.g 1.3.1.3.3.6.j.j.6.6.3...+ @ + o ",
"L L , *.*.*.0.0.0.% @ 1 , , = @ @ & 1 L g y L R 1 = O.1.5.3.2.1.1.O...& 0.i.b.x.v.v.x.b.v.v.>.Q 6.6.1.1.1.3.3.3.6.3.O.m o % + o ",
". o o $ + % % @ $ + + + @ + o o o % % % % $ + + $ $ = = & & & & = & & $ L L A S / S S S / L % $ = g = & & & & & = = $ + + + o . ",
"o + + $ @ , , , / R :.*.:.L T 7.r.N.Z.Z.Z.N.i.<.x.N.x.d.<.,.H 4.4.4.4.z.j.4.<.<.3.:.% 5 L L R ) = S 5 1 % $ = g ..:.:.;.1.;.g 5 ",
"o + = & @ & y g g w w m Q = R g.y.g.q.b.V.m.b.b.g.b.b.x.y.,.Q n.n.n.n.6.n.n.6.4.3.;.$ Q *./ Q g , y = $ 1 + & ..O.;.1...O.$.m = ",
"X + $ @ 1 y m w & @ @ & = & S >.0.i.,.<.V.V.V.V.N.g.b.g.<.,.g 6.n.j.6.6.6.;.O.m O...$ ..*.*.R Q L g , $ % $ & y m m { ..;.;.y = ",
"@ @ $ & = y y = = & @ & = @ R 0.y.V.g.y.g.g.g.b.b.y.z.j.<.,.L 6.n.6.6.j.j.3.1.;.;...1 Q Q Q , , g g , % $ $ = ..;.....w m ..g & ",
"@ $ @ & $ 1 & & = & @ & 1 $ T i.i.i.y.V.V.z.y.0.i.y.0.0.>.>.g 3.6.5.6.3.5.6.6.4.4...+ , L L = & , , = % $ + & m ..O.....y p w & ",
"o @ @ & + o X O & & & @ & + 1 0.y.,.y.g.i.*.*.,.>.>.*.y.0.>.+ ..3.1.1.3.3.3.3.3.1.g o 1 @ @ @ $ 1 1 1 $ + o o w m m m w = @ @ O ",
"o @ @ $ + + o . X + + + + + $ = % 1 5 1 % $ + % % % % 1 1 1 $ % = = $ & & = = 1 $ $ $ $ + + + o + $ $ + + + + + + + o . + + + + ",
"S T R ,.7.>.>.S $ = , = = g / y 1 , L , = = + 5 L L R S 1 R ,.R U S % = 1 = , 5 R ,.<.T T S S % ,.3.<.,.;.;.,.../ g & 1 >.<.7.( ",
"@ % 1 1 L , / % o $ = & & # @ # O @ @ + @ @ X 1 , = = 1 1 , = = 1 @ X + @ + @ 1 , = = = $ + + o ....;...{ m m w g w & 1 A L , % ",
"% @ % 1 % 1 A @ o @ & & & + @ O o @ @ + @ @ o @ 1 , , 1 1 , 1 & & + o @ @ + + 1 , $ @ $ 1 @ @ o m ..m g m w w w m = & $ , 1 @ % ",
"@ @ % 1 1 , , + X @ + O + o o o O o O + O o   o @ = = = = , , = 1 @ . + @ + @ + $ @ + $ + + o . = = = = = = = = = = @ @ A , 1 % ",
"@ + @ % 1 1 1 o . o o X o o X o o o X X X X   @ @ + $ & & 1 1 1 & @   o + + + + + + o o X X .   @ @ $ & # = & $ & @ o + 1 1 $ + "
};
